X:1
T:Title
L:1/8
M:4/4
K:Ab
V:1 treble nm="Grand Piano"
V:1
 z4 z2 z[Q:1/4=100] A | AGGF F3 A | AGGF F3 A | AGGF FEEF | G6- GG | GFFE E3 G | GFFE E3 F | %7
 F2 E2 D2 ED |[M:3/4] C6 |[M:1/4] cB |[M:4/4] c2 AG F2 cB | c2 AG F2 cB | c2 A2 G2 A2 | B6 Bc | %14
 d2 d2 c>B AB | c4 B3 G | A2 F2- F G2 B | A8 |] %18

